X:127
T:Water Kelpie
S:Susan Crane
M:3/4
L:1/8
K:D Dorian
"Dm"D3 F Ad|"C/D"c3 de2|"Dm"f3g f2|"C"e4 dc|!
"Dm"d2 e2 d2|"Am"c2 A2 AG|"G"G2 A2 c2|d4 e2||!
"Dm"D3 F Ad|"C/D"c2 d2 e2|"Dm"f3g f2|"C"e4 dc|!
"Dm"d2 e2 d2|"Am"c2 A2 AG|"G"G2 A2 c2|d4 e2|!
"Dm"fe de fe|"Dm/C"fe de fe|"Am"fe de cA|e2 ag fe|]

